svg/600/sharp/power_off-fill.svg

<svg xmlns="http://www.w3.org/2000/svg" width="48" height="48" viewBox="0 -960 960 960"><path d="M362.782-105.869v-131.566L225.869-388.348v-289.131h64.218v93.044L62.478-811.478 109-858.565l750 750-46.522 47.087-187.782-187.216-26.912 29.912v112.913H362.782Zm342.219-241.13-371.48-371.48v-136.217h79.784v171H547.26v-171h79.219v171h108.217v303.566l-29.695 33.131Z"/></svg>

<svg xmlns="http://www.w3.org/2000/svg" width="48" height="48" viewBox="0 -960 960 960"><path d="M362.78-105.87v-131.56L225.87-388.35v-289.13h64.22v93.05L62.48-811.48 109-858.57l750 750-46.52 47.09L624.7-248.69l-26.92 29.91v112.91h-235ZM705-347 333.52-718.48V-854.7h79.78v171h133.96v-171h79.22v171H734.7v303.57L705-347Z"/></svg>
